X:1
T:Title
%%score ( 1 2 ) { 3 | 4 }
L:1/8
Q:1/4=168
M:4/4
K:G
V:1 treble nm="Grand Piano, Staff"
V:2 treble 
V:3 bass nm="Choir Pad, Staff-1"
V:4 bass 
V:1
 E4 [EB]2 [EB]2 | [EA]4 [EG]4 | [^DF]8 | [EG]4 [CF]2 [CE]2 | [G,E]4 [B,^D]4 | [B,E]8 | %6
w: By~kimra~melodio,~kompono~necerta * *||||||
 [^DF]4 [EG]2 [DF]2 | E4 [^DF]4 | [EG]2 [EA]2 [^DB]4 | [EG]4 [DB]2 [DB]2 | E4 F2- [CF]2 | [B,G]8 | %12
w: ||||||
 [DB]4 [Dd]2 [DB]2 | [FA]4 [EG]4 | [^DF]8 | [^DB]4 [Ee]2 [E^c]2 | [DB]4 [^C_B]4 | [DB]8 | %18
w: ||||||
 G3 F E2 [DF]2 | [DB]4 [GB]4 | [FA]2 [EG]2 [^DF]4 | G2 A2 [EB]2 [Ec]2 | B2 A2 [EG]2 [^DF]2 | E8 |] %24
w: ||||||
V:2
 x8 | x8 | x8 | x8 | x8 | x8 | x8 | x8 | x8 | x8 | z4 D2 z2 | x8 | x8 | x8 | x8 | x8 | x8 | x8 | %18
 D4 z4 | x8 | x8 | E4 z4 | E4 z4 | x8 |] %24
V:3
 E,2 F,2 G,2 G,2 | C4 B,4 | B,4 A,4 | G,4 A,2 G,2 | G,4 F,4 | G,8 | B,4 B,2 A,2 | B,4 A,4 | %8
 B,2 A,2 F,4 | E,4 G,2 D2 | C2 B,2 A,4 | G,8 | G,4 A,2 B,2 | D4 B,4 | B,8 | B,2 A,2 B,2 G,2 | %16
 F,4 F,4 | F,8 | G,4 C2 A,2 | G,4 D4 | D2 B,2 B,4 | B,4 B,2 A,2 | G,2 A,2 B,2 A,2 | G,8 |] %24
V:4
 z4 E,2 E,2 | A,,4 E,4 | B,,8 | E,4 A,,2 C,2 | B,,4 B,,4 | E,8 | B,,4 E,2 F,2 | G,4 F,4 | %8
 E,2 C,2 B,,4 | C,4 G,,2 B,,2 | C,4 D,4 | G,,8 | z4 F,2 G,2 | D,4 E,4 | B,,8 | z4 G,2 E,2 | z8 | %17
 B,,8 | B,,4 C,2 D,2 | G,,4 B,,3 C, | D,2 E,2 B,,4 | E,4 G,,2 A,,2 | B,,4 B,,4 | E,8 |] %24

